chrome/icons/apps.svg

<svg width="1024" height="1024" viewBox="0 0 1024 1024" fill="none" xmlns="http://www.w3.org/2000/svg">
<path d="M960 320C960 332.333 957.5 344.583 952.5 356.75C947.5 368.917 940.667 379.333 932 388L807.5 512.5C819.833 513.5 831.417 516.667 842.25 522C853.083 527.333 862.5 534.25 870.5 542.75C878.5 551.25 884.75 561.167 889.25 572.5C893.75 583.833 896 595.667 896 608V864C896 877.333 893.5 889.833 888.5 901.5C883.5 913.167 876.667 923.333 868 932C859.333 940.667 849.167 947.5 837.5 952.5C825.833 957.5 813.333 960 800 960H160C146.667 960 134.167 957.5 122.5 952.5C110.833 947.5 100.667 940.667 92 932C83.3333 923.333 76.5 913.167 71.5 901.5C66.5 889.833 64 877.333 64 864V224C64 210.667 66.5 198.167 71.5 186.5C76.5 174.833 83.3333 164.667 92 156C100.667 147.333 110.833 140.5 122.5 135.5C134.167 130.5 146.667 128 160 128H416C428.333 128 440.167 130.25 451.5 134.75C462.833 139.25 472.75 145.5 481.25 153.5C489.75 161.5 496.667 170.917 502 181.75C507.333 192.583 510.5 204.167 511.5 216.5L636 92C644.667 83.3334 655 76.5001 667 71.5C679 66.5001 691.333 64.0001 704 64C716.667 64.0001 729 66.5001 741 71.5C753 76.5001 763.333 83.3334 772 92L932 252C940.667 260.667 947.5 271 952.5 283C957.5 295 960 307.333 960 320ZM896 320C896 311.333 892.833 303.833 886.5 297.5L726.5 137.5C720.167 131.167 712.667 128 704 128C695.333 128 687.833 131.167 681.5 137.5L521.5 297.5C515.167 303.833 512 311.333 512 320C512 328.667 515.167 336.167 521.5 342.5L681.5 502.5C687.833 508.833 695.333 512 704 512C712.667 512 720.167 508.833 726.5 502.5L886.5 342.5C892.833 336.167 896 328.667 896 320ZM448 512V224C448 215.333 444.833 207.833 438.5 201.5C432.167 195.167 424.667 192 416 192H160C151.333 192 143.833 195.167 137.5 201.5C131.167 207.833 128 215.333 128 224V512H448ZM600 512L512 424V512H600ZM448 896V576H128V864C128 872.667 131.167 880.167 137.5 886.5C143.833 892.833 151.333 896 160 896H448ZM832 608C832 599.333 828.833 591.833 822.5 585.5C816.167 579.167 808.667 576 800 576H512V896H800C808.667 896 816.167 892.833 822.5 886.5C828.833 880.167 832 872.667 832 864V608Z" fill="context-fill" fill-opacity="context-fill-opacity"/>
</svg>

<svg xmlns="http://www.w3.org/2000/svg" width="1024" height="1024" fill="none" viewBox="0 0 1024 1024"><path fill="context-fill" fill-opacity="context-fill-opacity" d="M960 320q0 18.5-7.5 36.75T932 388L807.5 512.5q18.5 1.5 34.75 9.5t28.25 20.75 18.75 29.75T896 608v256q0 20-7.5 37.5T868 932t-30.5 20.5T800 960H160q-20 0-37.5-7.5T92 932t-20.5-30.5T64 864V224q0-20 7.5-37.5T92 156t30.5-20.5T160 128h256q18.5 0 35.5 6.75t29.75 18.75T502 181.75t9.5 34.75L636 92q13-13 31-20.5t37-7.5 37 7.5T772 92l160 160q13 13 20.5 31t7.5 37m-64 0q0-13-9.5-22.5l-160-160Q717 128 704 128t-22.5 9.5l-160 160Q512 307 512 320t9.5 22.5l160 160Q691 512 704 512t22.5-9.5l160-160Q896 333 896 320M448 512V224q0-13-9.5-22.5T416 192H160q-13 0-22.5 9.5T128 224v288zm152 0-88-88v88zM448 896V576H128v288q0 13 9.5 22.5T160 896zm384-288q0-13-9.5-22.5T800 576H512v320h288q13 0 22.5-9.5T832 864z"/></svg>
